src/assets/web3-default.svg

<svg height="512" viewBox="0 0 512 512" width="512" xmlns="http://www.w3.org/2000/svg" xmlns:xlink="http://www.w3.org/1999/xlink"><radialGradient id="a" cx="1.813132%" cy="50%" r="98.186868%"><stop offset="0" stop-color="#424242"/><stop offset="1"/></radialGradient><g fill="none" fill-rule="evenodd"><path d="m256 0c141.384896 0 256 114.615104 256 256 0 141.384896-114.615104 256-256 256-141.384896 0-256-114.615104-256-256 0-141.384896 114.615104-256 256-256z" fill="url(#a)"/><path d="m137.902344 242.761719-15.820313 55.957031h-16.699219l-22.382812-84.550781h18.398438l13.183593 59.589843h.9375l15.410157-59.589843h14.941406l15.703125 59.589843h.9375l13.066406-59.589843h18.28125l-22.441406 84.550781h-16.582031l-15.996094-55.957031zm127.324218 40.839843v15.117188h-56.015624v-84.550781h56.015624v15.117187h-38.320312v19.746094h36.152344v14.003906h-36.152344v20.566406zm56.601563 15.117188h-37.96875v-84.550781h36.972656c16.40625 0 26.191407 8.027343 26.191407 21.09375 0 8.964843-6.621094 16.757812-15.292969 18.046875v1.054687c11.191406.820313 19.335937 9.257813 19.335937 20.15625 0 14.824219-11.191406 24.199219-29.238281 24.199219zm-20.273437-71.015625v21.503906h13.300781c9.550781 0 14.765625-3.925781 14.765625-10.722656 0-6.738281-4.863282-10.78125-13.300782-10.78125zm0 57.480469h15.761718c10.195313 0 15.703125-4.277344 15.703125-12.1875 0-7.734375-5.683593-11.835938-16.113281-11.835938h-15.351562zm84.433593-23.144532v-13.183593h10.3125c8.027344 0 13.476563-4.6875 13.476563-11.601563 0-6.796875-5.273438-11.132812-13.535156-11.132812-8.203126 0-13.652344 4.628906-14.121094 11.953125h-16.347656c.585937-15.996094 12.480468-26.074219 30.9375-26.074219 17.34375 0 29.824218 9.492188 29.824218 22.792969 0 9.785156-6.152344 17.402343-15.585937 19.335937v1.054688c11.601562 1.289062 18.867187 9.023437 18.867187 20.15625 0 14.824218-13.945312 25.546875-33.222656 25.546875-18.867188 0-31.640625-10.429688-32.402344-26.367188h16.933594c.527344 7.148438 6.5625 11.660157 15.644531 11.660157 8.847657 0 15-4.980469 15-12.1875 0-7.382813-5.800781-11.953126-15.292969-11.953126z" fill="#fff"/></g></svg>

<?xml version="1.0" encoding="UTF-8"?>
<svg width="512px" height="512px" viewBox="0 0 512 512" version="1.1" xmlns="http://www.w3.org/2000/svg" xmlns:xlink="http://www.w3.org/1999/xlink">
    <!-- Generator: Sketch 52.6 (67491) - http://www.bohemiancoding.com/sketch -->
    <title>web3-circle</title>
    <desc>Created with Sketch.</desc>
    <defs>
        <radialGradient cx="1.81313223%" cy="50%" fx="1.81313223%" fy="50%" r="98.1868678%" id="radialGradient-1">
            <stop stop-color="#424242" offset="0%"></stop>
            <stop stop-color="#000000" offset="100%"></stop>
        </radialGradient>
    </defs>
    <g id="Page-1" stroke="none" stroke-width="1" fill="none" fill-rule="evenodd">
        <g id="web3-circle">
            <path d="M256,0 L256,0 C397.384896,-2.5971984e-14 512,114.615104 512,256 L512,256 C512,397.384896 397.384896,512 256,512 L256,512 C114.615104,512 1.7314656e-14,397.384896 0,256 L0,256 C-1.7314656e-14,114.615104 114.615104,2.5971984e-14 256,0 Z" id="base" fill="url(#radialGradient-1)" style="mix-blend-mode: luminosity;"></path>
            <path d="M137.902344,242.761719 L122.082031,298.71875 L105.382812,298.71875 L83,214.167969 L101.398438,214.167969 L114.582031,273.757812 L115.519531,273.757812 L130.929688,214.167969 L145.871094,214.167969 L161.574219,273.757812 L162.511719,273.757812 L175.578125,214.167969 L193.859375,214.167969 L171.417969,298.71875 L154.835938,298.71875 L138.839844,242.761719 L137.902344,242.761719 Z M265.226562,283.601562 L265.226562,298.71875 L209.210938,298.71875 L209.210938,214.167969 L265.226562,214.167969 L265.226562,229.285156 L226.90625,229.285156 L226.90625,249.03125 L263.058594,249.03125 L263.058594,263.035156 L226.90625,263.035156 L226.90625,283.601562 L265.226562,283.601562 Z M321.828125,298.71875 L283.859375,298.71875 L283.859375,214.167969 L320.832031,214.167969 C337.238281,214.167969 347.023438,222.195312 347.023438,235.261719 C347.023438,244.226562 340.402344,252.019531 331.730469,253.308594 L331.730469,254.363281 C342.921875,255.183594 351.066406,263.621094 351.066406,274.519531 C351.066406,289.34375 339.875,298.71875 321.828125,298.71875 Z M301.554688,227.703125 L301.554688,249.207031 L314.855469,249.207031 C324.40625,249.207031 329.621094,245.28125 329.621094,238.484375 C329.621094,231.746094 324.757812,227.703125 316.320312,227.703125 L301.554688,227.703125 Z M301.554688,285.183594 L317.316406,285.183594 C327.511719,285.183594 333.019531,280.90625 333.019531,272.996094 C333.019531,265.261719 327.335938,261.160156 316.90625,261.160156 L301.554688,261.160156 L301.554688,285.183594 Z M385.988281,262.039062 L385.988281,248.855469 L396.300781,248.855469 C404.328125,248.855469 409.777344,244.167969 409.777344,237.253906 C409.777344,230.457031 404.503906,226.121094 396.242188,226.121094 C388.039062,226.121094 382.589844,230.75 382.121094,238.074219 L365.773438,238.074219 C366.359375,222.078125 378.253906,212 396.710938,212 C414.054688,212 426.535156,221.492188 426.535156,234.792969 C426.535156,244.578125 420.382812,252.195312 410.949219,254.128906 L410.949219,255.183594 C422.550781,256.472656 429.816406,264.207031 429.816406,275.339844 C429.816406,290.164062 415.871094,300.886719 396.59375,300.886719 C377.726562,300.886719 364.953125,290.457031 364.191406,274.519531 L381.125,274.519531 C381.652344,281.667969 387.6875,286.179688 396.769531,286.179688 C405.617188,286.179688 411.769531,281.199219 411.769531,273.992188 C411.769531,266.609375 405.96875,262.039062 396.476562,262.039062 L385.988281,262.039062 Z" id="WEB3" fill="#FFFFFF"></path>
        </g>
    </g>
</svg>
